places/64/folder-aptana.svg

<?xml version="1.0" encoding="UTF-8" standalone="no"?>
<!-- Created with Inkscape (http://www.inkscape.org/) -->

<svg
   xmlns:dc="http://purl.org/dc/elements/1.1/"
   xmlns:cc="http://creativecommons.org/ns#"
   xmlns:rdf="http://www.w3.org/1999/02/22-rdf-syntax-ns#"
   xmlns:svg="http://www.w3.org/2000/svg"
   xmlns="http://www.w3.org/2000/svg"
   xmlns:xlink="http://www.w3.org/1999/xlink"
   xmlns:sodipodi="http://sodipodi.sourceforge.net/DTD/sodipodi-0.dtd"
   xmlns:inkscape="http://www.inkscape.org/namespaces/inkscape"
   id="svg13094"
   height="64"
   width="64"
   version="1.1"
   inkscape:version="0.92.2 5c3e80d, 2017-08-06"
   sodipodi:docname="folder-aptana.svg"
   inkscape:export-filename="folder.png"
   inkscape:export-xdpi="90"
   inkscape:export-ydpi="90">
  <sodipodi:namedview
     pagecolor="#ffffff"
     bordercolor="#666666"
     borderopacity="1"
     objecttolerance="10"
     gridtolerance="10"
     guidetolerance="10"
     inkscape:pageopacity="0"
     inkscape:pageshadow="2"
     inkscape:window-width="1920"
     inkscape:window-height="1022"
     id="namedview46"
     showgrid="true"
     inkscape:snap-bbox="true"
     inkscape:bbox-paths="true"
     inkscape:bbox-nodes="true"
     inkscape:snap-bbox-edge-midpoints="true"
     inkscape:snap-bbox-midpoints="true"
     inkscape:snap-nodes="true"
     inkscape:object-paths="true"
     inkscape:snap-intersection-paths="true"
     inkscape:object-nodes="true"
     inkscape:snap-smooth-nodes="true"
     inkscape:snap-midpoints="true"
     inkscape:snap-object-midpoints="true"
     inkscape:snap-center="true"
     fit-margin-top="0"
     fit-margin-left="0"
     fit-margin-right="0"
     fit-margin-bottom="0"
     inkscape:zoom="11.313709"
     inkscape:cx="39.632361"
     inkscape:cy="23.07868"
     inkscape:window-x="-5"
     inkscape:window-y="23"
     inkscape:window-maximized="1"
     inkscape:current-layer="svg13094"
     showguides="true"
     inkscape:guide-bbox="true"
     inkscape:snap-page="true"
     inkscape:snap-global="true">
    <inkscape:grid
       type="xygrid"
       id="grid3023"
       empspacing="5"
       visible="true"
       enabled="true"
       snapvisiblegridlinesonly="true"
       originx="-80"
       originy="-75"
       spacingx="1"
       spacingy="1" />
  </sodipodi:namedview>
  <defs
     id="defs11">
    <linearGradient
       inkscape:collect="always"
       xlink:href="#linearGradient873"
       id="linearGradient883"
       gradientUnits="userSpaceOnUse"
       x1="-5"
       y1="64"
       x2="-5"
       y2="14" />
    <linearGradient
       inkscape:collect="always"
       id="linearGradient873">
      <stop
         style="stop-color:#f43f66;stop-opacity:0.01886792"
         offset="0"
         id="stop869" />
      <stop
         style="stop-color:#f4ae3f;stop-opacity:0.47024673"
         offset="1"
         id="stop871" />
    </linearGradient>
    <radialGradient
       inkscape:collect="always"
       xlink:href="#linearGradient823"
       id="radialGradient825"
       cx="30.106619"
       cy="50.317799"
       fx="30.106619"
       fy="50.317799"
       r="30.5"
       gradientTransform="matrix(2.7540984,-1.4217667e-7,8.36519e-8,2.7868852,-52.916593,-81.229925)"
       gradientUnits="userSpaceOnUse" />
    <linearGradient
       inkscape:collect="always"
       id="linearGradient823">
      <stop
         style="stop-color:#9e1423;stop-opacity:0.12917271"
         offset="0"
         id="stop819" />
      <stop
         id="stop827"
         offset="0.54000002"
         style="stop-color:#f4405b;stop-opacity:0.02322206" />
      <stop
         style="stop-color:#f43f6d;stop-opacity:0.169"
         offset="1"
         id="stop821" />
    </linearGradient>
    <linearGradient
       inkscape:collect="always"
       xlink:href="#linearGradient865"
       id="linearGradient867"
       x1="53"
       y1="17"
       x2="53"
       y2="15"
       gradientUnits="userSpaceOnUse" />
    <linearGradient
       inkscape:collect="always"
       id="linearGradient865">
      <stop
         style="stop-color:#dad8ce;stop-opacity:1"
         offset="0"
         id="stop861" />
      <stop
         style="stop-color:#ebebeb;stop-opacity:1"
         offset="1"
         id="stop863" />
    </linearGradient>
    <linearGradient
       inkscape:collect="always"
       xlink:href="#linearGradient1138"
       id="linearGradient1132"
       x1="32.559322"
       y1="15.559322"
       x2="33.542374"
       y2="14.542373"
       gradientUnits="userSpaceOnUse" />
    <linearGradient
       id="linearGradient1138"
       inkscape:collect="always">
      <stop
         id="stop1134"
         offset="0"
         style="stop-color:#37321c;stop-opacity:0.15674891" />
      <stop
         id="stop1136"
         offset="1"
         style="stop-color:#6d5524;stop-opacity:0" />
    </linearGradient>
    <radialGradient
       inkscape:collect="always"
       xlink:href="#linearGradient835"
       id="radialGradient841"
       gradientUnits="userSpaceOnUse"
       gradientTransform="matrix(-1.0283412,0,0,-0.55737705,67.778836,1.2257719)"
       cx="33.465961"
       cy="2.1991789"
       fx="33.465961"
       fy="2.1991789"
       r="30.5" />
    <linearGradient
       inkscape:collect="always"
       id="linearGradient835">
      <stop
         style="stop-color:#668cbb;stop-opacity:1"
         offset="0"
         id="stop831" />
      <stop
         style="stop-color:#668cbb;stop-opacity:1"
         offset="1"
         id="stop833" />
    </linearGradient>
    <linearGradient
       inkscape:collect="always"
       xlink:href="#linearGradient855"
       id="linearGradient857"
       x1="61"
       y1="17"
       x2="60"
       y2="0"
       gradientUnits="userSpaceOnUse" />
    <linearGradient
       inkscape:collect="always"
       id="linearGradient855">
      <stop
         style="stop-color:#3e4d60;stop-opacity:0.72156864"
         offset="0"
         id="stop851" />
      <stop
         style="stop-color:#393b49;stop-opacity:0.26560232"
         offset="1"
         id="stop853" />
    </linearGradient>
  </defs>
  <metadata
     id="metadata13099">
    <rdf:RDF>
      <cc:Work
         rdf:about="">
        <dc:format>image/svg+xml</dc:format>
        <dc:type
           rdf:resource="http://purl.org/dc/dcmitype/StillImage" />
        <dc:title />
      </cc:Work>
    </rdf:RDF>
  </metadata>
  <g
     id="g1240">
    <path
       style="color:#000000;display:inline;overflow:visible;visibility:visible;fill:url(#radialGradient841);fill-opacity:1;fill-rule:nonzero;stroke:none;marker:none;enable-background:accumulate"
       d="m 3,6 -10e-8,58.000001 L 60,64 64,60 V 1 L 63,0 H 37 L 32,4.9999999 4,5 Z"
       id="path839"
       inkscape:connector-curvature="0"
       sodipodi:nodetypes="cccccccccc" />
    <path
       sodipodi:nodetypes="cccccccccc"
       inkscape:connector-curvature="0"
       id="path3833-98"
       d="m 3,6 -10e-8,58.000001 L 60,64 64,60 V 1 L 63,0 H 37 L 32,4.9999999 4,5 Z"
       style="color:#000000;display:inline;overflow:visible;visibility:visible;fill:url(#linearGradient857);fill-opacity:1;fill-rule:nonzero;stroke:none;marker:none;enable-background:accumulate" />
    <path
       style="fill:#002812;fill-opacity:0.12481857;stroke:none;stroke-width:1;marker:none"
       inkscape:connector-curvature="0"
       d="m 58,13 v 51 h 2 l 4,-4 V 1 L 63,0 v 18 z"
       id="path3802-94"
       sodipodi:nodetypes="cccccccc" />
  </g>
  <g
     id="g1235">
    <path
       style="fill:url(#linearGradient867);fill-opacity:1;fill-rule:nonzero"
       inkscape:connector-curvature="0"
       id="path3920-52"
       d="M 7,13 H 58 V 44 H 7 Z"
       sodipodi:nodetypes="ccccc" />
    <path
       sodipodi:nodetypes="ccccc"
       inkscape:connector-curvature="0"
       id="path3982-40"
       d="m 30,13 4,4 h 2 l -4,-4 z"
       style="color:#000000;display:inline;overflow:visible;visibility:visible;fill:url(#linearGradient1132);fill-opacity:1;fill-rule:nonzero;stroke-width:1;stroke-linecap:butt;stroke-linejoin:miter;stroke-miterlimit:4;stroke-dasharray:none;stroke-dashoffset:0;stroke-opacity:1;marker:none;enable-background:accumulate" />
  </g>
  <g
     id="g1231">
    <path
       inkscape:export-ydpi="90"
       inkscape:export-xdpi="90"
       sodipodi:nodetypes="ccccccccccc"
       style="color:#000000;display:inline;overflow:visible;visibility:visible;fill:#f4ae3f;fill-opacity:1;fill-rule:nonzero;stroke-width:1;stroke-linecap:butt;stroke-linejoin:miter;stroke-miterlimit:4;stroke-dasharray:none;stroke-dashoffset:0;stroke-opacity:1;marker:none;enable-background:accumulate"
       inkscape:connector-curvature="0"
       d="m 0,13 v 50 l 1,1 h 59 l 1,-1 V 18 l -1,-1 -26,1e-6 -5,-5 L 1,12 Z"
       id="path877" />
    <path
       id="path881"
       d="m 0,13 v 50 l 1,1 h 59 l 1,-1 V 18 l -1,-1 -26,1e-6 -5,-5 L 1,12 Z"
       inkscape:connector-curvature="0"
       style="color:#000000;display:inline;overflow:visible;visibility:visible;fill:url(#linearGradient883);fill-opacity:1;fill-rule:nonzero;stroke-width:1;stroke-linecap:butt;stroke-linejoin:miter;stroke-miterlimit:4;stroke-dasharray:none;stroke-dashoffset:0;stroke-opacity:1;marker:none;enable-background:accumulate"
       sodipodi:nodetypes="ccccccccccc"
       inkscape:export-xdpi="90"
       inkscape:export-ydpi="90" />
    <path
       inkscape:export-ydpi="90"
       inkscape:export-xdpi="90"
       sodipodi:nodetypes="ccccccccccc"
       style="color:#000000;display:inline;overflow:visible;visibility:visible;fill:url(#radialGradient825);fill-opacity:1;fill-rule:nonzero;stroke-width:1;stroke-linecap:butt;stroke-linejoin:miter;stroke-miterlimit:4;stroke-dasharray:none;stroke-dashoffset:0;stroke-opacity:1;marker:none;enable-background:accumulate"
       inkscape:connector-curvature="0"
       d="m 0,13 v 50 l 1,1 h 59 l 1,-1 V 18 l -1,-1 -26,1e-6 -5,-5 L 1,12 Z"
       id="path3916-08" />
  </g>
  <path
     inkscape:connector-curvature="0"
     id="rect3001"
     d="m 7,25 c -1.108,0 -2,0.892 -2,2 v 23 c 0,1.108 0.892,2 2,2 h 23 c 1.108,0 2,-0.892 2,-2 V 27 c 0,-1.108 -0.892,-2 -2,-2 z m 10.71875,4 H 18.5 19.28125 c 0.395832,0 0.8125,0.242951 0.8125,0.78125 0,1.212239 0.262855,1.875305 0.71875,2.1875 0.223258,0.07899 0.44415,0.180721 0.65625,0.28125 0.545541,0.112785 1.193763,-0.162513 2.0625,-1.03125 0.380635,-0.380635 0.845103,-0.279897 1.125,0 l 0.5625,0.5625 0.5625,0.5625 c 0.279895,0.279896 0.380632,0.744366 0,1.125 -0.868737,0.868738 -1.144034,1.516958 -1.03125,2.0625 0.100531,0.2121 0.20226,0.432992 0.28125,0.65625 0.312194,0.455895 0.975261,0.71875 2.1875,0.71875 0.538298,0 0.78125,0.416666 0.78125,0.8125 V 38.5 39.28125 c 0,0.395834 -0.242952,0.8125 -0.78125,0.8125 -1.212239,0 -1.875306,0.262855 -2.1875,0.71875 -0.07899,0.223258 -0.180719,0.44415 -0.28125,0.65625 -0.112784,0.545542 0.162513,1.193762 1.03125,2.0625 0.380632,0.380634 0.279895,0.845104 0,1.125 l -0.5625,0.5625 -0.5625,0.5625 c -0.279897,0.279897 -0.744365,0.380635 -1.125,0 -0.868737,-0.868737 -1.516959,-1.144034 -2.0625,-1.03125 -0.212101,0.10053 -0.432992,0.20226 -0.65625,0.28125 -0.455895,0.312196 -0.71875,0.97526 -0.71875,2.1875 0,0.538298 -0.416667,0.78125 -0.8125,0.78125 H 18.5 17.71875 c -0.395833,0 -0.8125,-0.242952 -0.8125,-0.78125 0,-1.21224 -0.262855,-1.875304 -0.71875,-2.1875 -0.223257,-0.07899 -0.44415,-0.18072 -0.65625,-0.28125 -0.545541,-0.112784 -1.193762,0.162513 -2.0625,1.03125 -0.380635,0.380635 -0.845104,0.279897 -1.125,0 l -0.5625,-0.5625 -0.5625,-0.5625 c -0.279897,-0.279896 -0.380635,-0.744366 0,-1.125 0.868737,-0.868738 1.144034,-1.516958 1.03125,-2.0625 C 12.149469,41.25665 12.04775,41.035758 11.96875,40.8125 11.656555,40.356605 10.99349,40.09375 9.78125,40.09375 9.2429519,40.09375 9,39.677084 9,39.28125 V 38.5 37.71875 c 0,-0.395834 0.2429519,-0.8125 0.78125,-0.8125 1.21224,0 1.875305,-0.262855 2.1875,-0.71875 0.07899,-0.223258 0.180719,-0.44415 0.28125,-0.65625 0.112784,-0.545542 -0.162513,-1.193762 -1.03125,-2.0625 -0.380635,-0.380634 -0.279897,-0.845104 0,-1.125 l 0.5625,-0.5625 0.5625,-0.5625 c 0.279896,-0.279897 0.744365,-0.380635 1.125,0 0.868738,0.868737 1.51696,1.144035 2.0625,1.03125 0.2121,-0.100529 0.432991,-0.20226 0.65625,-0.28125 0.455895,-0.312195 0.71875,-0.975261 0.71875,-2.1875 C 16.90625,29.242951 17.322917,29 17.71875,29 Z M 18.5,34.53125 c -2.186127,0 -3.96875,1.782624 -3.96875,3.96875 0,2.186126 1.782624,3.96875 3.96875,3.96875 2.186126,0 3.96875,-1.782624 3.96875,-3.96875 0,-2.186126 -1.782624,-3.96875 -3.96875,-3.96875 z"
     style="color:#000000;display:inline;overflow:visible;visibility:visible;opacity:1;vector-effect:none;fill:#3e566a;fill-opacity:0.85195935;fill-rule:nonzero;stroke:none;stroke-width:1.24999988;stroke-linecap:butt;stroke-linejoin:miter;stroke-miterlimit:4;stroke-dasharray:none;stroke-dashoffset:0;stroke-opacity:1;marker:none;paint-order:normal;enable-background:accumulate" />
</svg>

<?xml version="1.0" encoding="UTF-8"?>
<!-- Created with Inkscape (http://www.inkscape.org/) -->
<svg width="64" height="64" version="1.1" xmlns="http://www.w3.org/2000/svg" xmlns:cc="http://creativecommons.org/ns#" xmlns:dc="http://purl.org/dc/elements/1.1/" xmlns:rdf="http://www.w3.org/1999/02/22-rdf-syntax-ns#" xmlns:xlink="http://www.w3.org/1999/xlink">
	<defs>
		<linearGradient id="c" x1="-5" x2="-5" y1="64" y2="14" gradientUnits="userSpaceOnUse">
			<stop stop-color="#f43f66" stop-opacity=".018868" offset="0"/>
			<stop stop-color="#f4ae3f" stop-opacity=".47025" offset="1"/>
		</linearGradient>
		<radialGradient id="b" cx="30.107" cy="50.318" r="30.5" gradientTransform="matrix(2.7541 -1.4218e-7 8.3652e-8 2.7869 -52.917 -81.23)" gradientUnits="userSpaceOnUse">
			<stop stop-color="#9e1423" stop-opacity=".12917" offset="0"/>
			<stop stop-color="#f4405b" stop-opacity=".023222" offset=".54"/>
			<stop stop-color="#f43f6d" stop-opacity=".169" offset="1"/>
		</radialGradient>
		<linearGradient id="d" x1="53" x2="53" y1="17" y2="15" gradientUnits="userSpaceOnUse">
			<stop stop-color="#dad8ce" offset="0"/>
			<stop stop-color="#ebebeb" offset="1"/>
		</linearGradient>
		<linearGradient id="f" x1="32.559" x2="33.542" y1="15.559" y2="14.542" gradientUnits="userSpaceOnUse">
			<stop stop-color="#37321c" stop-opacity=".15675" offset="0"/>
			<stop stop-color="#6d5524" stop-opacity="0" offset="1"/>
		</linearGradient>
		<radialGradient id="a" cx="33.466" cy="2.1992" r="30.5" gradientTransform="matrix(-1.0283 0 0 -.55738 67.779 1.2258)" gradientUnits="userSpaceOnUse">
			<stop stop-color="#668cbb" offset="0"/>
			<stop stop-color="#668cbb" offset="1"/>
		</radialGradient>
		<linearGradient id="e" x1="61" x2="60" y1="17" gradientUnits="userSpaceOnUse">
			<stop stop-color="#3e4d60" stop-opacity=".72157" offset="0"/>
			<stop stop-color="#393b49" stop-opacity=".2656" offset="1"/>
		</linearGradient>
	</defs>
	<metadata>
		<rdf:RDF>
			<cc:Work rdf:about="">
				<dc:format>image/svg+xml</dc:format>
				<dc:type rdf:resource="http://purl.org/dc/dcmitype/StillImage"/>
				<dc:title/>
			</cc:Work>
		</rdf:RDF>
	</metadata>
	<g>
		<path d="m3 6-1e-7 58 57-1e-6 4-4v-59l-1-1h-26l-5 5-28 1e-7z" color="#000000" fill="url(#a)"/>
		<path d="m3 6-1e-7 58 57-1e-6 4-4v-59l-1-1h-26l-5 5-28 1e-7z" color="#000000" fill="url(#e)"/>
		<path d="m58 13v51h2l4-4v-59l-1-1v18z" fill="#002812" fill-opacity=".12482"/>
	</g>
	<g>
		<path d="m7 13h51v31h-51z" fill="url(#d)"/>
		<path d="m30 13 4 4h2l-4-4z" color="#000000" fill="url(#f)"/>
	</g>
	<g>
		<path d="m0 13v50l1 1h59l1-1v-45l-1-1-26 1e-6 -5-5-28-1e-6z" color="#000000" fill="#f4ae3f"/>
		<path d="m0 13v50l1 1h59l1-1v-45l-1-1-26 1e-6 -5-5-28-1e-6z" color="#000000" fill="url(#c)"/>
		<path d="m0 13v50l1 1h59l1-1v-45l-1-1-26 1e-6 -5-5-28-1e-6z" color="#000000" fill="url(#b)"/>
	</g>
	<path d="m7 25c-1.108 0-2 0.892-2 2v23c0 1.108 0.892 2 2 2h23c1.108 0 2-0.892 2-2v-23c0-1.108-0.892-2-2-2zm10.719 4h0.78125 0.78125c0.39583 0 0.8125 0.24295 0.8125 0.78125 0 1.2122 0.26286 1.8753 0.71875 2.1875 0.22326 0.07899 0.44415 0.18072 0.65625 0.28125 0.54554 0.11278 1.1938-0.16251 2.0625-1.0312 0.38064-0.38064 0.8451-0.2799 1.125 0l0.5625 0.5625 0.5625 0.5625c0.2799 0.2799 0.38063 0.74437 0 1.125-0.86874 0.86874-1.144 1.517-1.0312 2.0625 0.10053 0.2121 0.20226 0.43299 0.28125 0.65625 0.31219 0.4559 0.97526 0.71875 2.1875 0.71875 0.5383 0 0.78125 0.41667 0.78125 0.8125v0.78125 0.78125c0 0.39583-0.24295 0.8125-0.78125 0.8125-1.2122 0-1.8753 0.26286-2.1875 0.71875-0.07899 0.22326-0.18072 0.44415-0.28125 0.65625-0.11278 0.54554 0.16251 1.1938 1.0312 2.0625 0.38063 0.38063 0.2799 0.8451 0 1.125l-0.5625 0.5625-0.5625 0.5625c-0.2799 0.2799-0.74436 0.38064-1.125 0-0.86874-0.86874-1.517-1.144-2.0625-1.0312-0.2121 0.10053-0.43299 0.20226-0.65625 0.28125-0.4559 0.3122-0.71875 0.97526-0.71875 2.1875 0 0.5383-0.41667 0.78125-0.8125 0.78125h-0.78125-0.78125c-0.39583 0-0.8125-0.24295-0.8125-0.78125 0-1.2122-0.26286-1.8753-0.71875-2.1875-0.22326-0.07899-0.44415-0.18072-0.65625-0.28125-0.54554-0.11278-1.1938 0.16251-2.0625 1.0312-0.38064 0.38064-0.8451 0.2799-1.125 0l-0.5625-0.5625-0.5625-0.5625c-0.2799-0.2799-0.38064-0.74437 0-1.125 0.86874-0.86874 1.144-1.517 1.0312-2.0625-0.10053-0.2121-0.20225-0.43299-0.28125-0.65625-0.3122-0.4559-0.97526-0.71875-2.1875-0.71875-0.5383 0-0.78125-0.41667-0.78125-0.8125v-0.78125-0.78125c0-0.39583 0.24295-0.8125 0.78125-0.8125 1.2122 0 1.8753-0.26286 2.1875-0.71875 0.07899-0.22326 0.18072-0.44415 0.28125-0.65625 0.11278-0.54554-0.16251-1.1938-1.0312-2.0625-0.38064-0.38063-0.2799-0.8451 0-1.125l0.5625-0.5625 0.5625-0.5625c0.2799-0.2799 0.74436-0.38064 1.125 0 0.86874 0.86874 1.517 1.144 2.0625 1.0312 0.2121-0.10053 0.43299-0.20226 0.65625-0.28125 0.4559-0.3122 0.71875-0.97526 0.71875-2.1875 0-0.5383 0.41667-0.78125 0.8125-0.78125zm0.78125 5.5312c-2.1861 0-3.9688 1.7826-3.9688 3.9688s1.7826 3.9688 3.9688 3.9688 3.9688-1.7826 3.9688-3.9688-1.7826-3.9688-3.9688-3.9688z" color="#000000" fill="#3e566a" fill-opacity=".85196" style="paint-order:normal"/>
</svg>
